svgs/duotone/circle-l.svg

<svg xmlns="http://www.w3.org/2000/svg" viewBox="0 0 512 512"><!--! Font Awesome Pro 6.1.1 by @fontawesome - https://fontawesome.com License - https://fontawesome.com/license (Commercial License) Copyright 2022 Fonticons, Inc. --><defs><style>.fa-secondary{opacity:.4}</style></defs><path class="fa-primary" d="M328 336H208V152C208 138.8 197.3 128 184 128S160 138.8 160 152v208C160 373.3 170.8 384 184 384h144c13.25 0 24-10.75 24-24S341.3 336 328 336z"/><path class="fa-secondary" d="M256 0C114.6 0 0 114.6 0 256s114.6 256 256 256s256-114.6 256-256S397.4 0 256 0zM328 384h-144C170.8 384 160 373.3 160 360v-208C160 138.8 170.8 128 184 128S208 138.8 208 152v184h120c13.25 0 24 10.75 24 24S341.3 384 328 384z"/></svg>

<svg xmlns="http://www.w3.org/2000/svg" viewBox="0 0 512 512"><!--! Font Awesome Pro 6.4.2 by @fontawesome - https://fontawesome.com License - https://fontawesome.com/license (Commercial License) Copyright 2023 Fonticons, Inc. --><path class="fa-primary" style="fill:var(--fa-primary-color,inherit);opacity:var(--fa-primary-opacity,1);" d="M184 128c13.3 0 24 10.7 24 24V336H328c13.3 0 24 10.7 24 24s-10.7 24-24 24H184c-13.3 0-24-10.7-24-24V152c0-13.3 10.7-24 24-24z"/><path class="fa-secondary" style="fill:var(--fa-secondary-color,inherit);opacity:var(--fa-secondary-opacity,.4);" d="M256 512A256 256 0 1 0 256 0a256 256 0 1 0 0 512zM208 152V336H328c13.3 0 24 10.7 24 24s-10.7 24-24 24H184c-13.3 0-24-10.7-24-24V152c0-13.3 10.7-24 24-24s24 10.7 24 24z"/></svg>
